src/Icons/icons/copy-icon.svg

<svg width="24" height="24" viewBox="0 0 24 24" fill="none" xmlns="http://www.w3.org/2000/svg">
<path d="M23.699 7.18701L16.8361 0.299875C16.8361 0.299875 16.7659 0.249896 16.7258 0.229904C16.5953 0.0899625 16.4047 0 16.194 0C16.1739 0 16.1639 0 16.1438 0C16.1237 0 16.1137 0 16.0936 0H9.76254C8.26756 0 7.04348 1.2095 7.04348 2.70887V2.91878H2.71906C1.22408 2.91878 0 4.12828 0 5.62766V21.2911C0 22.7805 1.21405 24 2.71906 24H14.5184C15.8528 24 16.9365 22.9204 16.9365 21.591V21.0812H21.5819C22.9164 21.0812 24 20.0017 24 18.6722V7.90671C24 7.63682 23.8896 7.37693 23.699 7.18701V7.18701ZM16.9264 2.46897L21.4916 7.04706H17.0368C16.9766 7.04706 16.9264 6.99708 16.9264 6.93711V2.46897V2.46897ZM15.4615 21.581C15.4615 22.1008 15.0401 22.5306 14.5084 22.5306H2.71906C2.02676 22.5306 1.46488 21.9708 1.46488 21.2811V5.61766C1.46488 4.92795 2.02676 4.37818 2.71906 4.37818H7.07358V13.2645H4.36455C3.98328 13.2645 3.68227 13.5743 3.68227 13.9442C3.68227 14.314 3.99331 14.6239 4.36455 14.6239H7.07358V16.2632C7.07358 16.2632 7.02341 16.2432 6.99331 16.2432H4.37458C3.99331 16.2432 3.69231 16.5531 3.69231 16.9229C3.69231 17.2928 4.00334 17.6027 4.37458 17.6027H6.99331C6.99331 17.6027 7.05351 17.5927 7.07358 17.5827V18.3524C7.07358 18.6622 7.13378 18.9421 7.23411 19.222H4.37458C3.99331 19.222 3.69231 19.5319 3.69231 19.9017C3.69231 20.2716 4.00334 20.5814 4.37458 20.5814H8.13712C8.13712 20.5814 8.20736 20.5614 8.23746 20.5614C8.67893 20.8713 9.2107 21.0512 9.79264 21.0512H15.4816V21.561L15.4615 21.581ZM21.5719 19.6118H9.77258C9.08027 19.6118 8.51839 19.0521 8.51839 18.3623V2.70887C8.51839 2.01916 9.08027 1.46939 9.77258 1.46939H15.4615V6.94711C15.4615 7.81674 16.1739 8.51645 17.0368 8.51645H22.5251V18.6722C22.5251 19.192 22.1037 19.6218 21.5719 19.6218V19.6118Z" fill="#4C4C4C"/>
<path d="M19.6455 10.3457H11.4281C11.0469 10.3457 10.7458 10.6557 10.7458 11.0257C10.7458 11.3957 11.0569 11.7057 11.4281 11.7057H19.6455C20.0268 11.7057 20.3278 11.3957 20.3278 11.0257C20.3278 10.6557 20.0168 10.3457 19.6455 10.3457Z" fill="#4C4C4C"/>
<path d="M19.6455 13.3344H11.4281C11.0469 13.3344 10.7458 13.6444 10.7458 14.0144C10.7458 14.3844 11.0569 14.6944 11.4281 14.6944H19.6455C20.0268 14.6944 20.3278 14.3844 20.3278 14.0144C20.3278 13.6444 20.0168 13.3344 19.6455 13.3344Z" fill="#4C4C4C"/>
<path d="M19.6455 16.3232H11.4281C11.0469 16.3232 10.7458 16.6332 10.7458 17.0032C10.7458 17.3732 11.0569 17.6832 11.4281 17.6832H19.6455C20.0268 17.6832 20.3278 17.3732 20.3278 17.0032C20.3278 16.6332 20.0168 16.3232 19.6455 16.3232Z" fill="#4C4C4C"/>
</svg>

<svg xmlns="http://www.w3.org/2000/svg" fill="#4C4C4C" viewBox="0 0 24 24"><path d="M23.699 7.187 16.836.3s-.07-.05-.11-.07a.728.728 0 0 0-.532-.23H9.763a2.716 2.716 0 0 0-2.72 2.709v.21H2.72A2.716 2.716 0 0 0 0 5.628V21.29A2.716 2.716 0 0 0 2.72 24h11.798a2.415 2.415 0 0 0 2.418-2.409v-.51h4.646A2.415 2.415 0 0 0 24 18.672V7.907c0-.27-.11-.53-.301-.72Zm-6.773-4.718 4.566 4.578h-4.455c-.06 0-.11-.05-.11-.11V2.47Zm-1.464 19.112a.95.95 0 0 1-.954.95H2.72c-.692 0-1.254-.56-1.254-1.25V5.618c0-.69.562-1.24 1.254-1.24h4.355v8.886h-2.71a.682.682 0 0 0-.682.68c0 .37.311.68.683.68h2.709v1.64s-.05-.02-.08-.02h-2.62a.682.682 0 0 0-.682.679c0 .37.311.68.683.68h2.618s.06-.01.08-.02v.77c0 .31.06.59.161.869h-2.86a.682.682 0 0 0-.682.68c0 .37.311.68.683.68h3.762s.07-.02.1-.02c.442.31.974.49 1.556.49h5.689v.509l-.02.02Zm6.11-1.97h-11.8c-.692 0-1.254-.559-1.254-1.249V2.71c0-.69.562-1.24 1.255-1.24h5.688v5.478c0 .87.713 1.57 1.576 1.57h5.488v10.155a.95.95 0 0 1-.953.95v-.01Z"/><path d="M19.645 10.346h-8.217a.682.682 0 0 0-.682.68c0 .37.31.68.682.68h8.217c.382 0 .683-.31.683-.68 0-.37-.311-.68-.683-.68ZM19.645 13.334h-8.217a.682.682 0 0 0-.682.68c0 .37.31.68.682.68h8.217c.382 0 .683-.31.683-.68 0-.37-.311-.68-.683-.68ZM19.645 16.323h-8.217a.682.682 0 0 0-.682.68c0 .37.31.68.682.68h8.217c.382 0 .683-.31.683-.68 0-.37-.311-.68-.683-.68Z"/></svg>
